X:1
T:Title
%%score { 1 | ( 2 3 ) }
L:1/8
Q:1/4=90
M:6/8
K:F
V:1 treble nm="Grand Piano"
V:2 bass 
V:3 bass 
V:1
 FGA FGA | F3 C3 | EDC [EG]FE | F6 | [DG][DA][DB] [DG][DA][DB] | [B,DG]3 [B,D]3 | %6
w: J.~E.~Hall * * * * *||||||
 [FA][EG][DF] [DF][DF][^CE] | D6 | .A3 .[Ec]3 | AGF [Ec]3 | .[EB]3 .[EG]3 | CFG A3 | %12
w: ||||||
 FGA [FA][FB][Fc] | [Fd]3 B3 | [DA][DG][DF] CFG | F6 |] %16
w: ||||
V:2
 [F,A,C][F,B,F][F,CF] [F,A,C][F,B,F][F,CF] | C3 z3 | [C,B,C][C,B,C][C,B,] [C,B,][C,A,][C,G,C] | %3
 [F,A,C]6 | [B,,B,][B,,A,][B,,G,] [B,,B,][B,,A,][B,,G,] | z3 G,3 | %6
 [A,,A,][A,,A,][A,,A,] [A,,A,][A,,A,][A,,G,] | [D,F,]6 | .[F,CF]3 .[C,C]3 | %9
 [F,CF][F,B,F][F,A,] [C,G,]3 | .[C,C]3 .[C,B,]3 | [F,A,][F,A,C][F,B,C] [F,CF]3 | %12
 [F,A,C][F,B,C][F,CF] [_E,C][D,B,][C,A,] | B,3 [F,D]3 | %14
 [B,,B,][B,,B,][B,,B,] [C,A,][C,A,C][C,B,C] | [F,A,C]6 |] %16
V:3
 x6 | [F,A,]6 | x6 | x6 | x6 | B,,6 | x6 | x6 | x6 | x6 | x6 | x6 | x6 | B,,6 | x6 | x6 |] %16

